static/img/kroki/15aabec77880a5d54438c3556e52652a.svg

<?xml version="1.0" encoding="us-ascii" standalone="no"?><svg xmlns="http://www.w3.org/2000/svg" xmlns:xlink="http://www.w3.org/1999/xlink" contentStyleType="text/css" height="374px" preserveAspectRatio="none" style="width:385px;height:374px;" version="1.1" viewBox="0 0 385 374" width="385px" zoomAndPan="magnify"><defs/><g><!--class azure_network_application_gateway--><g id="elem_azure_network_application_gateway"><rect codeLine="23" fill="#3D176E" height="39.7891" id="azure_network_application_gateway" rx="2.5" ry="2.5" style="stroke:#000D19;stroke-width:0.5;" width="348" x="7" y="328.58"/><ellipse cx="22" cy="348.4745" fill="#ADD1B2" rx="11" ry="11" style="stroke:#181818;stroke-width:1.0;"/><path d="M24.9688,354.1152 Q24.3906,354.412 23.75,354.5527 Q23.1094,354.7089 22.4063,354.7089 Q19.9063,354.7089 18.5781,353.0683 Q17.2656,351.412 17.2656,348.287 Q17.2656,345.162 18.5781,343.5058 Q19.9063,341.8495 22.4063,341.8495 Q23.1094,341.8495 23.75,342.0058 Q24.4063,342.162 24.9688,342.4589 L24.9688,345.1777 Q24.3438,344.5995 23.75,344.3339 Q23.1563,344.0527 22.5313,344.0527 Q21.1875,344.0527 20.5,345.1308 Q19.8125,346.1933 19.8125,348.287 Q19.8125,350.3808 20.5,351.4589 Q21.1875,352.5214 22.5313,352.5214 Q23.1563,352.5214 23.75,352.2558 Q24.3438,351.9745 24.9688,351.3964 L24.9688,354.1152 Z " fill="#000000"/><text fill="#D9B8FF" font-family="Helvetica" font-size="17" lengthAdjust="spacing" textLength="306" x="41" y="354.3598">azure_network_application_gateway</text></g><!--class gateway--><g id="elem_gateway"><rect codeLine="26" fill="#3D176E" height="39.7891" id="gateway" rx="2.5" ry="2.5" style="stroke:#000D19;stroke-width:0.5;" width="114" x="29" y="167.79"/><ellipse cx="44" cy="187.6845" fill="#ADD1B2" rx="11" ry="11" style="stroke:#181818;stroke-width:1.0;"/><path d="M46.9688,193.3252 Q46.3906,193.622 45.75,193.7627 Q45.1094,193.9189 44.4063,193.9189 Q41.9063,193.9189 40.5781,192.2783 Q39.2656,190.622 39.2656,187.497 Q39.2656,184.372 40.5781,182.7158 Q41.9063,181.0595 44.4063,181.0595 Q45.1094,181.0595 45.75,181.2158 Q46.4063,181.372 46.9688,181.6689 L46.9688,184.3877 Q46.3438,183.8095 45.75,183.5439 Q45.1563,183.2627 44.5313,183.2627 Q43.1875,183.2627 42.5,184.3408 Q41.8125,185.4033 41.8125,187.497 Q41.8125,189.5908 42.5,190.6689 Q43.1875,191.7314 44.5313,191.7314 Q45.1563,191.7314 45.75,191.4658 Q46.3438,191.1845 46.9688,190.6064 L46.9688,193.3252 Z " fill="#000000"/><text fill="#D9B8FF" font-family="Helvetica" font-size="17" lengthAdjust="spacing" textLength="72" x="63" y="193.5698">gateway</text></g><!--class microsoft_resource--><g id="elem_microsoft_resource"><rect codeLine="29" fill="#3D176E" height="39.7891" id="microsoft_resource" rx="2.5" ry="2.5" style="stroke:#000D19;stroke-width:0.5;" width="200" x="178" y="167.79"/><ellipse cx="193" cy="187.6845" fill="#ADD1B2" rx="11" ry="11" style="stroke:#181818;stroke-width:1.0;"/><path d="M195.9688,193.3252 Q195.3906,193.622 194.75,193.7627 Q194.1094,193.9189 193.4063,193.9189 Q190.9063,193.9189 189.5781,192.2783 Q188.2656,190.622 188.2656,187.497 Q188.2656,184.372 189.5781,182.7158 Q190.9063,181.0595 193.4063,181.0595 Q194.1094,181.0595 194.75,181.2158 Q195.4063,181.372 195.9688,181.6689 L195.9688,184.3877 Q195.3438,183.8095 194.75,183.5439 Q194.1563,183.2627 193.5313,183.2627 Q192.1875,183.2627 191.5,184.3408 Q190.8125,185.4033 190.8125,187.497 Q190.8125,189.5908 191.5,190.6689 Q192.1875,191.7314 193.5313,191.7314 Q194.1563,191.7314 194.75,191.4658 Q195.3438,191.1845 195.9688,190.6064 L195.9688,193.3252 Z " fill="#000000"/><text fill="#D9B8FF" font-family="Helvetica" font-size="17" lengthAdjust="spacing" textLength="158" x="212" y="193.5698">microsoft_resource</text></g><!--class resource--><g id="elem_resource"><rect codeLine="32" fill="#3D176E" height="39.7891" id="resource" rx="2.5" ry="2.5" style="stroke:#000D19;stroke-width:0.5;" width="113" x="124.5" y="7"/><ellipse cx="139.5" cy="26.8945" fill="#ADD1B2" rx="11" ry="11" style="stroke:#181818;stroke-width:1.0;"/><path d="M142.4688,32.5352 Q141.8906,32.832 141.25,32.9727 Q140.6094,33.1289 139.9063,33.1289 Q137.4063,33.1289 136.0781,31.4883 Q134.7656,29.832 134.7656,26.707 Q134.7656,23.582 136.0781,21.9258 Q137.4063,20.2695 139.9063,20.2695 Q140.6094,20.2695 141.25,20.4258 Q141.9063,20.582 142.4688,20.8789 L142.4688,23.5977 Q141.8438,23.0195 141.25,22.7539 Q140.6563,22.4727 140.0313,22.4727 Q138.6875,22.4727 138,23.5508 Q137.3125,24.6133 137.3125,26.707 Q137.3125,28.8008 138,29.8789 Q138.6875,30.9414 140.0313,30.9414 Q140.6563,30.9414 141.25,30.6758 Q141.8438,30.3945 142.4688,29.8164 L142.4688,32.5352 Z " fill="#000000"/><text fill="#D9B8FF" font-family="Helvetica" font-size="17" lengthAdjust="spacing" textLength="71" x="158.5" y="32.7798">resource</text></g><!--reverse link gateway to azure_network_application_gateway--><g id="link_gateway_azure_network_application_gateway"><path codeLine="35" d="M106.7016,223.2865 C124.9616,253.8065 151.22,297.69 169.5,328.25 " fill="none" id="gateway-backto-azure_network_application_gateway" style="stroke:#FFAF37;stroke-width:2.0;"/><polygon fill="none" points="97.46,207.84,101.5527,226.367,111.8504,220.2059,97.46,207.84" style="stroke:#FFAF37;stroke-width:2.0;"/></g><!--reverse link microsoft_resource to azure_network_application_gateway--><g id="link_microsoft_resource_azure_network_application_gateway"><path codeLine="36" d="M256.918,223.2016 C238.278,253.7216 211.41,297.69 192.74,328.25 " fill="none" id="microsoft_resource-backto-azure_network_application_gateway" style="stroke:#FFAF37;stroke-width:2.0;"/><polygon fill="none" points="266.3,207.84,251.7975,220.0742,262.0385,226.3289,266.3,207.84" style="stroke:#FFAF37;stroke-width:2.0;"/></g><!--reverse link resource to gateway--><g id="link_resource_gateway"><path codeLine="37" d="M160.2984,62.4965 C142.0384,93.0165 115.78,136.9 97.5,167.46 " fill="none" id="resource-backto-gateway" style="stroke:#FFAF37;stroke-width:2.0;"/><polygon fill="none" points="169.54,47.05,155.1496,59.4159,165.4473,65.577,169.54,47.05" style="stroke:#FFAF37;stroke-width:2.0;"/></g><!--reverse link resource to microsoft_resource--><g id="link_resource_microsoft_resource"><path codeLine="38" d="M202.082,62.4116 C220.722,92.9316 247.59,136.9 266.26,167.46 " fill="none" id="resource-backto-microsoft_resource" style="stroke:#FFAF37;stroke-width:2.0;"/><polygon fill="none" points="192.7,47.05,196.9615,65.5389,207.2025,59.2842,192.7,47.05" style="stroke:#FFAF37;stroke-width:2.0;"/></g><!--SRC=[ZP11Jy9048Nl_HMRS2O1YGA95o0nUY56l3T3TnOsRNUQsQaDgFzT431BMy3hUz_CUpDhgr5XNiX6vPWlaNtaK-iAOCZLX9cg6MN4gcCCcC6mRZwHavl0779KpvXzeDW4wiJxsYQfG-_LNM1D8KbNJANJX_N2uFpEGYS1DSl0-ua8ssKf69JHu-N8c3fPNzePwFxm0HiOiKO-8hrUJ_V7TUHcrDMx_uY5tQBgXq-Ras2ZPYFYbxhQSay49Hk7dloB7Lz1Q-jMwZxGtWwTs26VwOirQAhsj87CXp5Ua95aK-2iSHMEHzeCM-6NIt2Kx5-dO5ionWwb8avZA8fiLruikNW5WXLir6SKVH_X5Yct2PCd8p6Zfv8J3DrpxJJ- -DNjTcydHosx_pjQ6xWWDmEY7m00]--></g></svg>

<svg xmlns="http://www.w3.org/2000/svg" width="385" height="374" viewBox="0 0 385 374"><rect width="348" height="39.789" x="7" y="328.58" fill="#3D176E" rx="2.5" ry="2.5" style="stroke:#000d19;stroke-width:.5"/><circle cx="22" cy="348.474" r="11" fill="#ADD1B2" style="stroke:#181818;stroke-width:1"/><path d="M24.969 354.115q-.578.297-1.219.438-.64.156-1.344.156-2.5 0-3.828-1.64-1.312-1.657-1.312-4.782t1.312-4.781q1.328-1.656 3.828-1.656.703 0 1.344.156.656.156 1.219.453v2.719q-.625-.579-1.219-.844-.594-.281-1.219-.281-1.343 0-2.031 1.078-.687 1.062-.687 3.156t.687 3.172q.688 1.062 2.031 1.062.625 0 1.219-.265.594-.281 1.219-.86z"/><text x="41" y="354.36" fill="#D9B8FF" font-family="Helvetica" font-size="17" textLength="306">azure_network_application_gateway</text><rect width="114" height="39.789" x="29" y="167.79" fill="#3D176E" rx="2.5" ry="2.5" style="stroke:#000d19;stroke-width:.5"/><circle cx="44" cy="187.685" r="11" fill="#ADD1B2" style="stroke:#181818;stroke-width:1"/><path d="M46.969 193.325q-.578.297-1.219.438-.64.156-1.344.156-2.5 0-3.828-1.64-1.312-1.657-1.312-4.782t1.312-4.781q1.328-1.656 3.828-1.656.703 0 1.344.156.656.156 1.219.453v2.719q-.625-.578-1.219-.844-.594-.281-1.219-.281-1.343 0-2.031 1.078-.687 1.062-.687 3.156t.687 3.172q.688 1.062 2.031 1.062.625 0 1.219-.265.594-.281 1.219-.86z"/><text x="63" y="193.57" fill="#D9B8FF" font-family="Helvetica" font-size="17" textLength="72">gateway</text><rect width="200" height="39.789" x="178" y="167.79" fill="#3D176E" rx="2.5" ry="2.5" style="stroke:#000d19;stroke-width:.5"/><circle cx="193" cy="187.685" r="11" fill="#ADD1B2" style="stroke:#181818;stroke-width:1"/><path d="M195.969 193.325q-.578.297-1.219.438-.64.156-1.344.156-2.5 0-3.828-1.64-1.312-1.657-1.312-4.782t1.312-4.781q1.328-1.656 3.828-1.656.703 0 1.344.156.656.156 1.219.453v2.719q-.625-.578-1.219-.844-.594-.281-1.219-.281-1.344 0-2.031 1.078-.687 1.062-.687 3.156t.687 3.172q.688 1.062 2.031 1.062.625 0 1.219-.265.594-.281 1.219-.86z"/><text x="212" y="193.57" fill="#D9B8FF" font-family="Helvetica" font-size="17" textLength="158">microsoft_resource</text><rect width="113" height="39.789" x="124.5" y="7" fill="#3D176E" rx="2.5" ry="2.5" style="stroke:#000d19;stroke-width:.5"/><circle cx="139.5" cy="26.895" r="11" fill="#ADD1B2" style="stroke:#181818;stroke-width:1"/><path d="M142.469 32.535q-.578.297-1.219.438-.64.156-1.344.156-2.5 0-3.828-1.64-1.312-1.657-1.312-4.782t1.312-4.781q1.328-1.656 3.828-1.656.703 0 1.344.156.656.156 1.219.453v2.719q-.625-.578-1.219-.844-.594-.281-1.219-.281-1.344 0-2.031 1.078-.687 1.062-.687 3.156t.687 3.172q.688 1.062 2.031 1.062.625 0 1.219-.265.594-.281 1.219-.86z"/><text x="158.5" y="32.78" fill="#D9B8FF" font-family="Helvetica" font-size="17" textLength="71">resource</text><path fill="none" d="M106.702 223.287c18.26 30.52 44.518 74.403 62.798 104.963M97.46 207.84l4.093 18.527 10.297-6.161zm159.458 15.362c-18.64 30.52-45.508 74.488-64.178 105.048m73.56-120.41-14.502 12.234 10.24 6.255zM160.298 62.497C142.038 93.017 115.78 136.9 97.5 167.46m72.04-120.41-14.39 12.366 10.297 6.161zm32.542 15.362c18.64 30.52 45.508 74.488 64.178 105.048M192.7 47.05l4.262 18.489 10.24-6.255z" style="stroke:#ffaf37;stroke-width:2"/></svg>
